X:132
T: Peas Breakdown
M: 4/4
L: 1/8
K: Bm
|:"Bm"b2a2f2e2|d2B2B2Bd|"F#m"cAFA fedc|"Bm"Bcde"F#m"f3f|
"Bm"b2a2 ((3fbf) e2|dBBBB2Bd|"F#m"cAFA fedc|"Bm"BdcA B2z2:||
FE|:"D"D2A,D FEDF|ADFA dced|"A7"cGGG GBAG|"D"FDDD  "A7"D2 ((3FGF)|
"D"D2A,D FEDF|ADFA dfed|"A7"cGGG GBAG|1FDEC "D"D2 "A7"((3EFE) :|2"A7"FDEC "D"D2z2:|
